packages/rainbowkit/src/wallets/walletConnectors/kaikasWallet/kaikasWallet.svg

<svg width="84" height="78" viewBox="0 0 84 78" fill="none" xmlns="http://www.w3.org/2000/svg">
<g clip-path="url(#clip0_18_550)">
<path d="M62.2792 39.2422L57.2156 49.2888C54.6738 54.3322 49.5099 57.517 43.8737 57.517H10.1773C4.57122 57.4969 0 62.0883 0 67.6742C0 73.2601 4.57122 77.8514 10.1773 77.8514H78.9264C82.9953 77.8514 85.4065 73.3003 83.1159 69.9347L62.2892 39.2422H62.2792Z" fill="#99B3FF"/>
<path d="M73.8127 0H15.3513C6.87191 0 0 6.87191 0 15.3513V67.6742C0 62.0883 4.57122 57.497 10.1773 57.497H43.8837C49.5199 57.497 54.6839 54.3122 57.2257 49.2687L78.3337 7.33405C80.0316 3.96843 77.5902 0 73.8127 0Z" fill="#3366FF"/>
<path d="M45.5115 31.6168C48.9273 31.6168 51.7002 29.4567 51.7002 26.7843C51.7002 24.1119 48.9273 21.9519 45.5115 21.9519C42.0956 21.9519 39.3228 24.1119 39.3228 26.7843C39.3228 29.4567 42.0956 31.6168 45.5115 31.6168Z" fill="#DAFF86"/>
</g>
<defs>
<clipPath id="clip0_18_550">
<rect width="84" height="77.8514" fill="white"/>
</clipPath>
</defs>
</svg>

<svg xmlns="http://www.w3.org/2000/svg" width="84" height="78" fill="none"><g clip-path="url(#a)"><path fill="#99B3FF" d="M62.28 39.242 57.215 49.29a14.95 14.95 0 0 1-13.342 8.228H10.177C4.571 57.497 0 62.088 0 67.674s4.571 10.177 10.177 10.177h68.75c4.068 0 6.48-4.55 4.189-7.916L62.289 39.242z"/><path fill="#36F" d="M73.813 0H15.35C6.871 0 0 6.872 0 15.351v52.323c0-5.586 4.571-10.177 10.177-10.177h33.707c5.636 0 10.8-3.185 13.342-8.228L78.334 7.334C80.032 3.968 77.59 0 73.813 0"/><path fill="#DAFF86" d="M45.512 31.617c3.415 0 6.188-2.16 6.188-4.833s-2.773-4.832-6.189-4.832-6.188 2.16-6.188 4.832c0 2.673 2.773 4.833 6.188 4.833"/></g><defs><clipPath id="a"><path fill="#fff" d="M0 0h84v77.851H0z"/></clipPath></defs></svg>
